!!!COM: Music21
!!!OTL: Foliada de Vilaboa
!!!OMV: pezas_foliadas_foliada-de-vilaboa_foliada-de-vilaboa-partitura.musicxml
**kern
*I"Bagpipes
*I'Bag
*clefG^2
*k[]
*M3/4
=1
!LO:TX:a:B:t=Presto
*MM200
!LO:TX:a:t=[quarter]=200
4r
8cccL
8bbJ
8aaL
8ggJ
=||
8aaL
8ggJ
8eeL
8ggJ
8eeL
8ggJ
=
8aaL
8ggJ
8eeL
8ggJ
8eeL
8ggJ
=
8aaL
8bbJ
8aaL
8ggJ
[4ff
=
4ff]
8bbL
8aaJ
8ggL
8ffJ
=
8ggL
8ffJ
8ddL
8ffJ
8ddL
8ffJ
=
8ggL
8ffJ
8ddL
8ffJ
8ddL
8ffJ
!!linebreak:original
=
8ggL
8aaJ
8ggL
8ffJ
[4ee
=
4ee]
8cccL
8bbJ
8aaL
8ggJ
=||
8aaL
8ggJ
8eeL
8ggJ
8eeL
8ggJ
=
8aaL
8ggJ
8eeL
8ggJ
8eeL
8ggJ
=
8aaL
8bbJ
8aaL
8ggJ
[4ff
=
4ff]
8bbL
8aaJ
8ggL
8ffJ
=
8ggL
8ffJ
8ddL
8ffJ
8ddL
8ffJ
!!linebreak:original
=
8ggL
8ffJ
8ddL
8ffJ
8ddL
8ffJ
=
8ggL
8aaJ
8ggL
8ffJ
[4ee
=
2.ee_
=
4ee]
2r
=||
4gg
4gg
4gg
=
4gg
4aa
4ff
=
4.dd
16eeLL
16ddJJ
[4cc
=
2.cc]
=
4gg
4gg
4gg
!!linebreak:original
=
4aa
4bb
4ccc
=
4.aa
16bbLL
16aaJJ
[4gg
=
2.gg]
=||
4gg
4gg
4gg
=
4gg
4aa
4ff
=
4.dd
16eeLL
16ddJJ
[4cc
=
2.cc]
=
4gg
4ee
4ff
=||
4gg
4ff
4ee
=
4.gg
16aaLL
16ggJJ
[4ff
!!linebreak:original
=
4ff]
4dd
4ee
=
2ff
[4gg
=
4gg]
4aa
4gg
=
4.ff
16ggLL
16ffJJ
[4ee
!!linebreak:original
=
4ee]
8ggL
8ffJ
8eeL
8ffJ
=
4gg
4ee
4ff
=||
4gg
4ff
4ee
=
4.gg
16aaLL
16ggJJ
[4ff
=
4ff]
4dd
4ee
=
2ff
[4gg
=
4gg]
4aa
4gg
=
4.ff
16ggLL
16ffJJ
[4ee
=
2ee]
4ee
=||
4gg
4gg
4ff
!!linebreak:original
=
4ee
4ee
4gg
=||
4aa
4aa
4gg
=
2ff
4dd
=
4ff
4ff
4ee
=
4dd
4dd
4ff
!!linebreak:original
=
4gg
4gg
4ff
=
2ee
4ee
=
4gg
4gg
4ff
=
2ee
4gg
=||
4aa
4aa
4gg
=
2ff
4dd
=
4ff
4ff
4ee
=
4dd
4dd
4ff
=
4gg
4gg
4ff
=||
[2.ee
=
2.ee_
!!linebreak:original
=
4ee]
8cccL
8bbJ
8aaL
8ggJ
=||
[2.ee
=
2.ee_
=
8ee]
8r
2r
==
*-
